ix/toggle-on-circle_outline.svg

<svg viewBox="0 0 24 24" fill="none" xmlns="http://www.w3.org/2000/svg" height="1em" width="1em">
  <path d="M14 20.75h-4c-4.83 0-8.75-3.93-8.75-8.75S5.17 3.25 10 3.25h4c4.83 0 8.75 3.93 8.75 8.75s-3.92 8.75-8.75 8.75Zm-4-16C6 4.75 2.75 8 2.75 12S6 19.25 10 19.25h4c4 0 7.25-3.25 7.25-7.25S18 4.75 14 4.75h-4Z" fill="#292D32"/>
  <path d="M14 16.75c-2.62 0-4.75-2.13-4.75-4.75S11.38 7.25 14 7.25s4.75 2.13 4.75 4.75-2.13 4.75-4.75 4.75Zm0-8c-1.79 0-3.25 1.46-3.25 3.25s1.46 3.25 3.25 3.25 3.25-1.46 3.25-3.25S15.79 8.75 14 8.75Z" fill="#292D32"/>
</svg>

<svg viewBox="0 0 24 24" fill="none" xmlns="http://www.w3.org/2000/svg" height="1em" width="1em">
  <path d="M14 20.75H10C5.17 20.75 1.25 16.82 1.25 12C1.25 7.18 5.17 3.25 10 3.25H14C18.83 3.25 22.75 7.18 22.75 12C22.75 16.82 18.83 20.75 14 20.75ZM10 4.75C6 4.75 2.75 8 2.75 12C2.75 16 6 19.25 10 19.25H14C18 19.25 21.25 16 21.25 12C21.25 8 18 4.75 14 4.75H10Z" fill="#292D32"/>
  <path d="M14 16.75C11.38 16.75 9.25 14.62 9.25 12C9.25 9.38 11.38 7.25 14 7.25C16.62 7.25 18.75 9.38 18.75 12C18.75 14.62 16.62 16.75 14 16.75ZM14 8.75C12.21 8.75 10.75 10.21 10.75 12C10.75 13.79 12.21 15.25 14 15.25C15.79 15.25 17.25 13.79 17.25 12C17.25 10.21 15.79 8.75 14 8.75Z" fill="#292D32"/>
</svg>
